images/3235328.svg

<?xml version="1.0" encoding="UTF-8"?>
<svg xmlns="http://www.w3.org/2000/svg" xmlns:xlink="http://www.w3.org/1999/xlink" width="300pt" height="300pt" viewBox="0 0 300 300" version="1.1">
<defs>
<g>
<symbol overflow="visible" id="glyph0-0">
<path style="stroke:none;" d="M 0.546875 1.9375 L 0.546875 -7.75 L 6.046875 -7.75 L 6.046875 1.9375 Z M 1.171875 1.328125 L 5.4375 1.328125 L 5.4375 -7.140625 L 1.171875 -7.140625 Z M 1.171875 1.328125 "/>
</symbol>
<symbol overflow="visible" id="glyph0-1">
<path style="stroke:none;" d="M 4.328125 -7.28125 C 3.546875 -7.28125 2.921875 -6.984375 2.453125 -6.390625 C 1.992188 -5.804688 1.765625 -5.007812 1.765625 -4 C 1.765625 -2.988281 1.992188 -2.1875 2.453125 -1.59375 C 2.921875 -1.007812 3.546875 -0.71875 4.328125 -0.71875 C 5.117188 -0.71875 5.742188 -1.007812 6.203125 -1.59375 C 6.660156 -2.1875 6.890625 -2.988281 6.890625 -4 C 6.890625 -5.007812 6.660156 -5.804688 6.203125 -6.390625 C 5.742188 -6.984375 5.117188 -7.28125 4.328125 -7.28125 Z M 4.328125 -8.171875 C 5.453125 -8.171875 6.351562 -7.789062 7.03125 -7.03125 C 7.707031 -6.28125 8.046875 -5.269531 8.046875 -4 C 8.046875 -2.738281 7.707031 -1.726562 7.03125 -0.96875 C 6.351562 -0.21875 5.453125 0.15625 4.328125 0.15625 C 3.203125 0.15625 2.300781 -0.21875 1.625 -0.96875 C 0.957031 -1.71875 0.625 -2.726562 0.625 -4 C 0.625 -5.269531 0.957031 -6.28125 1.625 -7.03125 C 2.300781 -7.789062 3.203125 -8.171875 4.328125 -8.171875 Z M 4.328125 -8.171875 "/>
</symbol>
<symbol overflow="visible" id="glyph0-2">
<path style="stroke:none;" d="M 1.078125 -8.015625 L 2.546875 -8.015625 L 6.09375 -1.3125 L 6.09375 -8.015625 L 7.15625 -8.015625 L 7.15625 0 L 5.6875 0 L 2.125 -6.703125 L 2.125 0 L 1.078125 0 Z M 1.078125 -8.015625 "/>
</symbol>
<symbol overflow="visible" id="glyph0-3">
<path style="stroke:none;" d="M 1.078125 -8.015625 L 2.171875 -8.015625 L 2.171875 -4.734375 L 6.109375 -4.734375 L 6.109375 -8.015625 L 7.1875 -8.015625 L 7.1875 0 L 6.109375 0 L 6.109375 -3.8125 L 2.171875 -3.8125 L 2.171875 0 L 1.078125 0 Z M 1.078125 -8.015625 "/>
</symbol>
<symbol overflow="visible" id="glyph0-4">
<path style="stroke:none;" d="M 5.890625 -7.75 L 5.890625 -6.703125 C 5.472656 -6.898438 5.082031 -7.046875 4.71875 -7.140625 C 4.351562 -7.234375 4 -7.28125 3.65625 -7.28125 C 3.070312 -7.28125 2.617188 -7.164062 2.296875 -6.9375 C 1.972656 -6.707031 1.8125 -6.382812 1.8125 -5.96875 C 1.8125 -5.613281 1.914062 -5.34375 2.125 -5.15625 C 2.34375 -4.976562 2.75 -4.832031 3.34375 -4.71875 L 4 -4.59375 C 4.8125 -4.4375 5.410156 -4.160156 5.796875 -3.765625 C 6.179688 -3.378906 6.375 -2.863281 6.375 -2.21875 C 6.375 -1.4375 6.113281 -0.84375 5.59375 -0.4375 C 5.070312 -0.0390625 4.304688 0.15625 3.296875 0.15625 C 2.921875 0.15625 2.515625 0.109375 2.078125 0.015625 C 1.648438 -0.0664062 1.207031 -0.191406 0.75 -0.359375 L 0.75 -1.46875 C 1.195312 -1.21875 1.628906 -1.03125 2.046875 -0.90625 C 2.472656 -0.78125 2.890625 -0.71875 3.296875 -0.71875 C 3.921875 -0.71875 4.398438 -0.835938 4.734375 -1.078125 C 5.066406 -1.328125 5.234375 -1.675781 5.234375 -2.125 C 5.234375 -2.519531 5.113281 -2.828125 4.875 -3.046875 C 4.632812 -3.273438 4.238281 -3.445312 3.6875 -3.5625 L 3.03125 -3.6875 C 2.21875 -3.84375 1.628906 -4.09375 1.265625 -4.4375 C 0.898438 -4.78125 0.71875 -5.257812 0.71875 -5.875 C 0.71875 -6.582031 0.96875 -7.140625 1.46875 -7.546875 C 1.96875 -7.960938 2.660156 -8.171875 3.546875 -8.171875 C 3.921875 -8.171875 4.300781 -8.132812 4.6875 -8.0625 C 5.082031 -7.988281 5.484375 -7.882812 5.890625 -7.75 Z M 5.890625 -7.75 "/>
</symbol>
</g>
</defs>
<g id="surface39777">
<rect x="0" y="0" width="300" height="300" style="fill:rgb(100%,100%,100%);fill-opacity:1;stroke:none;"/>
<path style="fill:none;stroke-width:1.2;stroke-linecap:butt;stroke-linejoin:miter;stroke:rgb(0%,0%,0%);stroke-opacity:1;stroke-miterlimit:10;" d="M 35.25 166.015625 L 48.511719 161.015625 "/>
<path style="fill:none;stroke-width:1.2;stroke-linecap:butt;stroke-linejoin:miter;stroke:rgb(100%,0%,0%);stroke-opacity:1;stroke-miterlimit:10;" d="M 48.511719 161.015625 L 61.773438 156.015625 "/>
<path style="fill:none;stroke-width:1.2;stroke-linecap:butt;stroke-linejoin:miter;stroke:rgb(100%,0%,0%);stroke-opacity:1;stroke-miterlimit:10;" d="M 61.773438 156.015625 L 64.074219 142.03125 "/>
<path style="fill:none;stroke-width:1.2;stroke-linecap:butt;stroke-linejoin:miter;stroke:rgb(0%,0%,0%);stroke-opacity:1;stroke-miterlimit:10;" d="M 64.074219 142.03125 L 66.375 128.046875 "/>
<path style=" stroke:none;fill-rule:nonzero;fill:rgb(100%,100%,100%);fill-opacity:1;" d="M 57.773438 149.515625 L 66.773438 149.515625 L 66.773438 162.515625 L 57.773438 162.515625 Z M 57.773438 149.515625 "/>
<g style="fill:rgb(100%,0%,0%);fill-opacity:1;">
  <use xlink:href="#glyph0-1" x="57.773438" y="159.416992"/>
</g>
<path style="fill:none;stroke-width:1.2;stroke-linecap:butt;stroke-linejoin:miter;stroke:rgb(0%,0%,0%);stroke-opacity:1;stroke-miterlimit:10;" d="M 66.375 128.046875 L 44.453125 110.074219 "/>
<path style="fill:none;stroke-width:1.2;stroke-linecap:butt;stroke-linejoin:miter;stroke:rgb(0%,0%,0%);stroke-opacity:1;stroke-miterlimit:10;" d="M 68.410156 121.089844 L 50.875 106.714844 "/>
<path style="fill:none;stroke-width:1.2;stroke-linecap:butt;stroke-linejoin:miter;stroke:rgb(0%,0%,0%);stroke-opacity:1;stroke-miterlimit:10;" d="M 92.898438 118.046875 L 66.375 128.046875 "/>
<path style="fill:none;stroke-width:1.2;stroke-linecap:butt;stroke-linejoin:miter;stroke:rgb(0%,0%,0%);stroke-opacity:1;stroke-miterlimit:10;" d="M 44.453125 110.074219 L 49.054688 82.105469 "/>
<path style="fill:none;stroke-width:1.2;stroke-linecap:butt;stroke-linejoin:miter;stroke:rgb(0%,0%,0%);stroke-opacity:1;stroke-miterlimit:10;" d="M 49.054688 82.105469 L 75.578125 72.109375 "/>
<path style="fill:none;stroke-width:1.2;stroke-linecap:butt;stroke-linejoin:miter;stroke:rgb(0%,0%,0%);stroke-opacity:1;stroke-miterlimit:10;" d="M 54.058594 87.347656 L 75.277344 79.347656 "/>
<path style="fill:none;stroke-width:1.2;stroke-linecap:butt;stroke-linejoin:miter;stroke:rgb(0%,0%,0%);stroke-opacity:1;stroke-miterlimit:10;" d="M 75.578125 72.109375 L 97.5 90.078125 "/>
<path style="fill:none;stroke-width:1.2;stroke-linecap:butt;stroke-linejoin:miter;stroke:rgb(0%,0%,0%);stroke-opacity:1;stroke-miterlimit:10;" d="M 97.5 90.078125 L 92.898438 118.046875 "/>
<path style="fill:none;stroke-width:1.2;stroke-linecap:butt;stroke-linejoin:miter;stroke:rgb(0%,0%,0%);stroke-opacity:1;stroke-miterlimit:10;" d="M 90.457031 91.792969 L 86.777344 114.167969 "/>
<path style="fill:none;stroke-width:1.2;stroke-linecap:butt;stroke-linejoin:miter;stroke:rgb(0%,0%,0%);stroke-opacity:1;stroke-miterlimit:10;" d="M 92.898438 118.046875 L 114.816406 136.015625 "/>
<path style="fill:none;stroke-width:1.2;stroke-linecap:butt;stroke-linejoin:miter;stroke:rgb(0%,0%,0%);stroke-opacity:1;stroke-miterlimit:10;" d="M 114.816406 136.015625 L 112.515625 150 "/>
<path style="fill:none;stroke-width:1.2;stroke-linecap:butt;stroke-linejoin:miter;stroke:rgb(0%,0%,100%);stroke-opacity:1;stroke-miterlimit:10;" d="M 112.515625 150 L 110.214844 163.984375 "/>
<path style="fill:none;stroke-width:1.2;stroke-linecap:butt;stroke-linejoin:miter;stroke:rgb(0%,0%,100%);stroke-opacity:1;stroke-miterlimit:10;" d="M 110.214844 163.984375 L 121.175781 172.96875 "/>
<path style="fill:none;stroke-width:1.2;stroke-linecap:butt;stroke-linejoin:miter;stroke:rgb(0%,0%,0%);stroke-opacity:1;stroke-miterlimit:10;" d="M 121.175781 172.96875 L 132.136719 181.953125 "/>
<path style=" stroke:none;fill-rule:nonzero;fill:rgb(100%,100%,100%);fill-opacity:1;" d="M 102.214844 157.484375 L 119.214844 157.484375 L 119.214844 170.484375 L 102.214844 170.484375 Z M 102.214844 157.484375 "/>
<g style="fill:rgb(0%,0%,100%);fill-opacity:1;">
  <use xlink:href="#glyph0-2" x="102.214844" y="167.385742"/>
  <use xlink:href="#glyph0-3" x="110.198242" y="167.385742"/>
</g>
<path style="fill:none;stroke-width:1.2;stroke-linecap:butt;stroke-linejoin:miter;stroke:rgb(0%,0%,0%);stroke-opacity:1;stroke-miterlimit:10;" d="M 132.136719 181.953125 L 129.835938 195.9375 "/>
<path style="fill:none;stroke-width:1.2;stroke-linecap:butt;stroke-linejoin:miter;stroke:rgb(0%,0%,100%);stroke-opacity:1;stroke-miterlimit:10;" d="M 129.835938 195.9375 L 127.535156 209.921875 "/>
<path style="fill:none;stroke-width:1.2;stroke-linecap:butt;stroke-linejoin:miter;stroke:rgb(0%,0%,0%);stroke-opacity:1;stroke-miterlimit:10;" d="M 138.257812 185.832031 L 136.417969 197.019531 "/>
<path style="fill:none;stroke-width:1.2;stroke-linecap:butt;stroke-linejoin:miter;stroke:rgb(0%,0%,100%);stroke-opacity:1;stroke-miterlimit:10;" d="M 136.417969 197.019531 L 134.578125 208.207031 "/>
<path style="fill:none;stroke-width:1.2;stroke-linecap:butt;stroke-linejoin:miter;stroke:rgb(0%,0%,0%);stroke-opacity:1;stroke-miterlimit:10;" d="M 158.660156 171.953125 L 132.136719 181.953125 "/>
<path style="fill:none;stroke-width:1.2;stroke-linecap:butt;stroke-linejoin:miter;stroke:rgb(0%,0%,100%);stroke-opacity:1;stroke-miterlimit:10;" d="M 127.535156 209.921875 L 138.496094 218.90625 "/>
<path style="fill:none;stroke-width:1.2;stroke-linecap:butt;stroke-linejoin:miter;stroke:rgb(0%,0%,0%);stroke-opacity:1;stroke-miterlimit:10;" d="M 138.496094 218.90625 L 149.457031 227.890625 "/>
<path style=" stroke:none;fill-rule:nonzero;fill:rgb(100%,100%,100%);fill-opacity:1;" d="M 123.535156 203.421875 L 131.535156 203.421875 L 131.535156 216.421875 L 123.535156 216.421875 Z M 123.535156 203.421875 "/>
<g style="fill:rgb(0%,0%,100%);fill-opacity:1;">
  <use xlink:href="#glyph0-2" x="123.535156" y="213.323242"/>
</g>
<path style="fill:none;stroke-width:1.2;stroke-linecap:butt;stroke-linejoin:miter;stroke:rgb(0%,0%,0%);stroke-opacity:1;stroke-miterlimit:10;" d="M 149.457031 227.890625 L 162.71875 222.894531 "/>
<path style="fill:none;stroke-width:1.2;stroke-linecap:butt;stroke-linejoin:miter;stroke:rgb(0%,0%,100%);stroke-opacity:1;stroke-miterlimit:10;" d="M 162.71875 222.894531 L 175.980469 217.894531 "/>
<path style="fill:none;stroke-width:1.2;stroke-linecap:butt;stroke-linejoin:miter;stroke:rgb(0%,0%,0%);stroke-opacity:1;stroke-miterlimit:10;" d="M 149.757812 220.652344 L 160.363281 216.652344 "/>
<path style="fill:none;stroke-width:1.2;stroke-linecap:butt;stroke-linejoin:miter;stroke:rgb(0%,0%,100%);stroke-opacity:1;stroke-miterlimit:10;" d="M 160.363281 216.652344 L 170.972656 212.652344 "/>
<path style="fill:none;stroke-width:1.2;stroke-linecap:butt;stroke-linejoin:miter;stroke:rgb(0%,0%,100%);stroke-opacity:1;stroke-miterlimit:10;" d="M 175.980469 217.894531 L 178.28125 203.910156 "/>
<path style="fill:none;stroke-width:1.2;stroke-linecap:butt;stroke-linejoin:miter;stroke:rgb(0%,0%,0%);stroke-opacity:1;stroke-miterlimit:10;" d="M 178.28125 203.910156 L 180.582031 189.925781 "/>
<path style=" stroke:none;fill-rule:nonzero;fill:rgb(100%,100%,100%);fill-opacity:1;" d="M 171.980469 211.394531 L 179.980469 211.394531 L 179.980469 224.394531 L 171.980469 224.394531 Z M 171.980469 211.394531 "/>
<g style="fill:rgb(0%,0%,100%);fill-opacity:1;">
  <use xlink:href="#glyph0-2" x="171.980469" y="221.295898"/>
</g>
<path style="fill:none;stroke-width:1.2;stroke-linecap:butt;stroke-linejoin:miter;stroke:rgb(0%,0%,0%);stroke-opacity:1;stroke-miterlimit:10;" d="M 180.582031 189.925781 L 158.660156 171.953125 "/>
<path style="fill:none;stroke-width:1.2;stroke-linecap:butt;stroke-linejoin:miter;stroke:rgb(0%,0%,0%);stroke-opacity:1;stroke-miterlimit:10;" d="M 174.160156 193.285156 L 156.625 178.910156 "/>
<path style="fill:none;stroke-width:1.2;stroke-linecap:butt;stroke-linejoin:miter;stroke:rgb(0%,0%,0%);stroke-opacity:1;stroke-miterlimit:10;" d="M 158.660156 171.953125 L 163.261719 143.984375 "/>
<path style="fill:none;stroke-width:1.2;stroke-linecap:butt;stroke-linejoin:miter;stroke:rgb(0%,0%,0%);stroke-opacity:1;stroke-miterlimit:10;" d="M 163.261719 143.984375 L 189.785156 133.984375 "/>
<path style="fill:none;stroke-width:1.2;stroke-linecap:butt;stroke-linejoin:miter;stroke:rgb(0%,0%,0%);stroke-opacity:1;stroke-miterlimit:10;" d="M 163.5625 136.746094 L 184.777344 128.746094 "/>
<path style="fill:none;stroke-width:1.2;stroke-linecap:butt;stroke-linejoin:miter;stroke:rgb(0%,0%,0%);stroke-opacity:1;stroke-miterlimit:10;" d="M 141.339844 126.015625 L 163.261719 143.984375 "/>
<path style="fill:none;stroke-width:1.2;stroke-linecap:butt;stroke-linejoin:miter;stroke:rgb(0%,0%,0%);stroke-opacity:1;stroke-miterlimit:10;" d="M 189.785156 133.984375 L 194.386719 106.015625 "/>
<path style="fill:none;stroke-width:1.2;stroke-linecap:butt;stroke-linejoin:miter;stroke:rgb(0%,0%,0%);stroke-opacity:1;stroke-miterlimit:10;" d="M 194.386719 106.015625 L 172.464844 88.046875 "/>
<path style="fill:none;stroke-width:1.2;stroke-linecap:butt;stroke-linejoin:miter;stroke:rgb(0%,0%,0%);stroke-opacity:1;stroke-miterlimit:10;" d="M 187.964844 109.378906 L 170.429688 95.003906 "/>
<path style="fill:none;stroke-width:1.2;stroke-linecap:butt;stroke-linejoin:miter;stroke:rgb(0%,0%,0%);stroke-opacity:1;stroke-miterlimit:10;" d="M 194.386719 106.015625 L 207.648438 101.019531 "/>
<path style="fill:none;stroke-width:1.2;stroke-linecap:butt;stroke-linejoin:miter;stroke:rgb(0%,0%,100%);stroke-opacity:1;stroke-miterlimit:10;" d="M 207.648438 101.019531 L 220.90625 96.019531 "/>
<path style="fill:none;stroke-width:1.2;stroke-linecap:butt;stroke-linejoin:miter;stroke:rgb(0%,0%,0%);stroke-opacity:1;stroke-miterlimit:10;" d="M 172.464844 88.046875 L 145.941406 98.046875 "/>
<path style="fill:none;stroke-width:1.2;stroke-linecap:butt;stroke-linejoin:miter;stroke:rgb(0%,0%,0%);stroke-opacity:1;stroke-miterlimit:10;" d="M 145.941406 98.046875 L 141.339844 126.015625 "/>
<path style="fill:none;stroke-width:1.2;stroke-linecap:butt;stroke-linejoin:miter;stroke:rgb(0%,0%,0%);stroke-opacity:1;stroke-miterlimit:10;" d="M 152.0625 101.925781 L 148.382812 124.300781 "/>
<path style="fill:none;stroke-width:1.2;stroke-linecap:butt;stroke-linejoin:miter;stroke:rgb(0%,0%,100%);stroke-opacity:1;stroke-miterlimit:10;" d="M 220.90625 96.019531 L 231.867188 105.003906 "/>
<path style="fill:none;stroke-width:1.2;stroke-linecap:butt;stroke-linejoin:miter;stroke:rgb(80%,80%,0%);stroke-opacity:1;stroke-miterlimit:10;" d="M 231.867188 105.003906 L 242.828125 113.988281 "/>
<path style=" stroke:none;fill-rule:nonzero;fill:rgb(100%,100%,100%);fill-opacity:1;" d="M 212.90625 89.519531 L 229.90625 89.519531 L 229.90625 102.519531 L 212.90625 102.519531 Z M 212.90625 89.519531 "/>
<g style="fill:rgb(0%,0%,100%);fill-opacity:1;">
  <use xlink:href="#glyph0-2" x="212.90625" y="99.420898"/>
  <use xlink:href="#glyph0-3" x="220.889648" y="99.420898"/>
</g>
<path style="fill:none;stroke-width:1.2;stroke-linecap:butt;stroke-linejoin:miter;stroke:rgb(80%,80%,0%);stroke-opacity:1;stroke-miterlimit:10;" d="M 240.25 111.875 L 231.265625 122.832031 "/>
<path style="fill:none;stroke-width:1.2;stroke-linecap:butt;stroke-linejoin:miter;stroke:rgb(100%,0%,0%);stroke-opacity:1;stroke-miterlimit:10;" d="M 231.265625 122.832031 L 222.28125 133.792969 "/>
<path style="fill:none;stroke-width:1.2;stroke-linecap:butt;stroke-linejoin:miter;stroke:rgb(80%,80%,0%);stroke-opacity:1;stroke-miterlimit:10;" d="M 245.40625 116.101562 L 236.421875 127.0625 "/>
<path style="fill:none;stroke-width:1.2;stroke-linecap:butt;stroke-linejoin:miter;stroke:rgb(100%,0%,0%);stroke-opacity:1;stroke-miterlimit:10;" d="M 236.421875 127.0625 L 227.4375 138.023438 "/>
<path style="fill:none;stroke-width:1.2;stroke-linecap:butt;stroke-linejoin:miter;stroke:rgb(80%,80%,0%);stroke-opacity:1;stroke-miterlimit:10;" d="M 245.40625 116.101562 L 254.394531 105.140625 "/>
<path style="fill:none;stroke-width:1.2;stroke-linecap:butt;stroke-linejoin:miter;stroke:rgb(100%,0%,0%);stroke-opacity:1;stroke-miterlimit:10;" d="M 254.394531 105.140625 L 263.378906 94.179688 "/>
<path style="fill:none;stroke-width:1.2;stroke-linecap:butt;stroke-linejoin:miter;stroke:rgb(80%,80%,0%);stroke-opacity:1;stroke-miterlimit:10;" d="M 240.25 111.875 L 249.234375 100.914062 "/>
<path style="fill:none;stroke-width:1.2;stroke-linecap:butt;stroke-linejoin:miter;stroke:rgb(100%,0%,0%);stroke-opacity:1;stroke-miterlimit:10;" d="M 249.234375 100.914062 L 258.21875 89.953125 "/>
<path style="fill:none;stroke-width:1.2;stroke-linecap:butt;stroke-linejoin:miter;stroke:rgb(80%,80%,0%);stroke-opacity:1;stroke-miterlimit:10;" d="M 242.828125 113.988281 L 253.789062 122.972656 "/>
<path style="fill:none;stroke-width:1.2;stroke-linecap:butt;stroke-linejoin:miter;stroke:rgb(0%,0%,0%);stroke-opacity:1;stroke-miterlimit:10;" d="M 253.789062 122.972656 L 264.75 131.957031 "/>
<path style=" stroke:none;fill-rule:nonzero;fill:rgb(100%,100%,100%);fill-opacity:1;" d="M 239.828125 107.488281 L 246.828125 107.488281 L 246.828125 120.488281 L 239.828125 120.488281 Z M 239.828125 107.488281 "/>
<g style="fill:rgb(80%,80%,0%);fill-opacity:1;">
  <use xlink:href="#glyph0-4" x="239.828125" y="117.389648"/>
</g>
<path style=" stroke:none;fill-rule:nonzero;fill:rgb(100%,100%,100%);fill-opacity:1;" d="M 215.859375 129.410156 L 224.859375 129.410156 L 224.859375 142.410156 L 215.859375 142.410156 Z M 215.859375 129.410156 "/>
<g style="fill:rgb(100%,0%,0%);fill-opacity:1;">
  <use xlink:href="#glyph0-1" x="215.859375" y="139.311523"/>
</g>
<path style=" stroke:none;fill-rule:nonzero;fill:rgb(100%,100%,100%);fill-opacity:1;" d="M 256.796875 85.566406 L 265.796875 85.566406 L 265.796875 98.566406 L 256.796875 98.566406 Z M 256.796875 85.566406 "/>
<g style="fill:rgb(100%,0%,0%);fill-opacity:1;">
  <use xlink:href="#glyph0-1" x="256.796875" y="95.467773"/>
</g>
</g>
</svg>

<svg xmlns="http://www.w3.org/2000/svg" xmlns:xlink="http://www.w3.org/1999/xlink" width="300pt" height="300pt" viewBox="0 0 300 300"><defs><symbol overflow="visible"><path d="M.547 1.938V-7.75h5.5v9.688zm.625-.61h4.266v-8.47H1.171zm0 0"/></symbol><symbol overflow="visible" id="a"><path d="M4.328-7.28c-.78 0-1.406.296-1.875.89-.46.585-.687 1.382-.687 2.39 0 1.012.226 1.813.687 2.406.47.586 1.094.875 1.875.875.79 0 1.414-.288 1.875-.874.457-.593.688-1.394.688-2.406 0-1.008-.23-1.805-.687-2.39-.46-.594-1.086-.89-1.875-.89zm0-.892c1.125 0 2.024.383 2.703 1.14C7.708-6.28 8.048-5.27 8.048-4c0 1.262-.34 2.273-1.016 3.03C6.353-.22 5.454.157 4.33.157S2.3-.22 1.625-.97c-.668-.75-1-1.757-1-3.03 0-1.27.332-2.28 1-3.03.676-.76 1.578-1.142 2.703-1.142zm0 0"/></symbol><symbol overflow="visible" id="b"><path d="M1.078-8.016h1.47l3.546 6.704v-6.704h1.062V0H5.688L2.124-6.703V0H1.078zm0 0"/></symbol><symbol overflow="visible" id="c"><path d="M1.078-8.016h1.094v3.282H6.11v-3.282h1.077V0H6.11v-3.813H2.17V0H1.078zm0 0"/></symbol><symbol overflow="visible" id="d"><path d="M5.89-7.75v1.047c-.417-.195-.808-.344-1.17-.438-.368-.094-.72-.14-1.064-.14-.586 0-1.04.116-1.36.343-.323.23-.483.554-.483.968 0 .357.1.626.312.814.22.18.625.324 1.22.437L4-4.593c.813.157 1.41.434 1.797.828.383.387.578.903.578 1.547 0 .783-.262 1.376-.78 1.783-.525.398-1.29.593-2.298.593-.375 0-.78-.047-1.22-.14C1.648-.066 1.208-.19.75-.36v-1.11c.445.25.88.44 1.297.564.426.125.844.187 1.25.187.625 0 1.1-.116 1.437-.358.332-.25.5-.598.5-1.047 0-.395-.12-.703-.36-.922-.24-.226-.636-.398-1.186-.515l-.657-.126c-.81-.156-1.4-.406-1.764-.75C.898-4.78.72-5.258.72-5.875c0-.707.25-1.266.75-1.672.5-.414 1.19-.625 2.077-.625.375 0 .754.04 1.14.11.395.074.797.18 1.204.312zm0 0"/></symbol></defs><g><path fill="#fff" d="M0 0h300v300H0z"/><path d="M35.25 166.016l13.262-5" stroke-width="1.2" stroke="#000" stroke-miterlimit="10" fill="none"/><path d="M48.512 161.016l13.26-5M61.773 156.016l2.3-13.985" stroke-width="1.2" stroke="#f00" stroke-miterlimit="10" fill="none"/><path d="M64.074 142.03l2.3-13.983" stroke-width="1.2" stroke="#000" stroke-miterlimit="10" fill="none"/><path d="M57.773 149.516h9v13h-9zm0 0" fill="#fff"/><use xlink:href="#a" x="57.773" y="159.417" fill="#f00"/><path d="M66.375 128.047l-21.922-17.973M68.41 121.09l-17.535-14.375M92.898 118.047l-26.523 10M44.453 110.074l4.602-27.97M49.055 82.105l26.523-9.996M54.06 87.348l21.217-8M75.578 72.11L97.5 90.077M97.5 90.078l-4.602 27.97M90.457 91.793l-3.68 22.375M92.898 118.047l21.918 17.97M114.816 136.016l-2.3 13.984" stroke-width="1.2" stroke="#000" stroke-miterlimit="10" fill="none"/><path d="M112.516 150l-2.3 13.984M110.215 163.984l10.96 8.985" stroke-width="1.2" stroke="#00f" stroke-miterlimit="10" fill="none"/><path d="M121.176 172.97l10.96 8.983" stroke-width="1.2" stroke="#000" stroke-miterlimit="10" fill="none"/><path d="M102.215 157.484h17v13h-17zm0 0" fill="#fff"/><g fill="#00f"><use xlink:href="#b" x="102.215" y="167.386"/><use xlink:href="#c" x="110.198" y="167.386"/></g><path d="M132.137 181.953l-2.3 13.984" stroke-width="1.2" stroke="#000" stroke-miterlimit="10" fill="none"/><path d="M129.836 195.938l-2.3 13.984" stroke-width="1.2" stroke="#00f" stroke-miterlimit="10" fill="none"/><path d="M138.258 185.832l-1.84 11.188" stroke-width="1.2" stroke="#000" stroke-miterlimit="10" fill="none"/><path d="M136.418 197.02l-1.84 11.187" stroke-width="1.2" stroke="#00f" stroke-miterlimit="10" fill="none"/><path d="M158.66 171.953l-26.523 10" stroke-width="1.2" stroke="#000" stroke-miterlimit="10" fill="none"/><path d="M127.535 209.922l10.96 8.984" stroke-width="1.2" stroke="#00f" stroke-miterlimit="10" fill="none"/><path d="M138.496 218.906l10.96 8.985" stroke-width="1.2" stroke="#000" stroke-miterlimit="10" fill="none"/><path d="M123.535 203.422h8v13h-8zm0 0" fill="#fff"/><use xlink:href="#b" x="123.535" y="213.323" fill="#00f"/><path d="M149.457 227.89l13.262-4.995" stroke-width="1.2" stroke="#000" stroke-miterlimit="10" fill="none"/><path d="M162.72 222.895l13.26-5" stroke-width="1.2" stroke="#00f" stroke-miterlimit="10" fill="none"/><path d="M149.758 220.652l10.605-4" stroke-width="1.2" stroke="#000" stroke-miterlimit="10" fill="none"/><path d="M160.363 216.652l10.61-4M175.98 217.895l2.3-13.985" stroke-width="1.2" stroke="#00f" stroke-miterlimit="10" fill="none"/><path d="M178.28 203.91l2.302-13.984" stroke-width="1.2" stroke="#000" stroke-miterlimit="10" fill="none"/><path d="M171.98 211.395h8v13h-8zm0 0" fill="#fff"/><use xlink:href="#b" x="171.98" y="221.296" fill="#00f"/><path d="M180.582 189.926l-21.922-17.973M174.16 193.285l-17.535-14.375M158.66 171.953l4.602-27.97M163.262 143.984l26.523-10M163.563 136.746l21.214-8M141.34 126.016l21.922 17.968M189.785 133.984l4.602-27.968M194.387 106.016l-21.922-17.97M187.965 109.38L170.43 95.003M194.387 106.016l13.26-4.996" stroke-width="1.2" stroke="#000" stroke-miterlimit="10" fill="none"/><path d="M207.648 101.02l13.258-5" stroke-width="1.2" stroke="#00f" stroke-miterlimit="10" fill="none"/><path d="M172.465 88.047l-26.524 10M145.94 98.047l-4.6 27.97M152.063 101.926l-3.68 22.375" stroke-width="1.2" stroke="#000" stroke-miterlimit="10" fill="none"/><path d="M220.906 96.02l10.96 8.984" stroke-width="1.2" stroke="#00f" stroke-miterlimit="10" fill="none"/><path d="M231.867 105.004l10.96 8.984" stroke-width="1.2" stroke="#cc0" stroke-miterlimit="10" fill="none"/><path d="M212.906 89.52h17v13h-17zm0 0" fill="#fff"/><g fill="#00f"><use xlink:href="#b" x="212.906" y="99.421"/><use xlink:href="#c" x="220.89" y="99.421"/></g><path d="M240.25 111.875l-8.984 10.957" stroke-width="1.2" stroke="#cc0" stroke-miterlimit="10" fill="none"/><path d="M231.266 122.832l-8.985 10.96" stroke-width="1.2" stroke="#f00" stroke-miterlimit="10" fill="none"/><path d="M245.406 116.102l-8.984 10.96" stroke-width="1.2" stroke="#cc0" stroke-miterlimit="10" fill="none"/><path d="M236.422 127.063l-8.984 10.96" stroke-width="1.2" stroke="#f00" stroke-miterlimit="10" fill="none"/><path d="M245.406 116.102l8.99-10.96" stroke-width="1.2" stroke="#cc0" stroke-miterlimit="10" fill="none"/><path d="M254.395 105.14l8.984-10.96" stroke-width="1.2" stroke="#f00" stroke-miterlimit="10" fill="none"/><path d="M240.25 111.875l8.984-10.96" stroke-width="1.2" stroke="#cc0" stroke-miterlimit="10" fill="none"/><path d="M249.234 100.914l8.985-10.96" stroke-width="1.2" stroke="#f00" stroke-miterlimit="10" fill="none"/><path d="M242.828 113.988l10.96 8.985" stroke-width="1.2" stroke="#cc0" stroke-miterlimit="10" fill="none"/><path d="M253.79 122.973l10.96 8.984" stroke-width="1.2" stroke="#000" stroke-miterlimit="10" fill="none"/><path d="M239.828 107.488h7v13h-7zm0 0" fill="#fff"/><use xlink:href="#d" x="239.828" y="117.39" fill="#cc0"/><path d="M215.86 129.41h9v13h-9zm0 0" fill="#fff"/><use xlink:href="#a" x="215.859" y="139.312" fill="#f00"/><path d="M256.797 85.566h9v13h-9zm0 0" fill="#fff"/><use xlink:href="#a" x="256.797" y="95.468" fill="#f00"/></g></svg>
